src/pictures/logo-gold.svg

<svg width="23" height="28" viewBox="0 0 23 28" fill="none" xmlns="http://www.w3.org/2000/svg">
<g clip-path="url(#clip0_1094_1870)">
<path d="M13.3019 13.3426L13.1607 14.0982C12.9083 15.4737 12.4594 16.8057 11.8279 18.0533C9.86506 21.8858 7.94105 21.2559 7.85261 21.2279C7.79779 21.1841 7.76083 21.1217 7.74865 21.0526L6.3103 13.4264C7.11249 13.4 11.8139 13.2542 13.3019 13.3426Z" fill="#DBBE8F"/>
<path d="M14.0371 12.1382L13.9083 12.9326C13.9001 12.9813 13.8822 13.0279 13.8555 13.0695C13.8288 13.1111 13.794 13.1469 13.7532 13.1746C13.7249 13.1946 13.6941 13.2108 13.6616 13.2227C12.757 13.0676 7.09829 13.246 6.27438 13.2739V13.2646L6.20766 13.277H6.18439L6.12232 13.2879C6.10115 13.2895 6.07988 13.2895 6.05871 13.2879C5.97941 13.2875 5.90228 13.2619 5.83838 13.215C5.79787 13.1851 5.76389 13.1473 5.73855 13.1038C5.7132 13.0603 5.69701 13.012 5.69097 12.9621L5.59167 12.1599C5.58044 12.0646 5.60645 11.9686 5.66426 11.892C5.72208 11.8154 5.80725 11.764 5.90199 11.7487L6.22163 11.6944C6.95244 11.6696 11.9626 11.5392 13.3373 11.6432C13.4687 11.6618 13.5991 11.682 13.7284 11.7037C13.794 11.7149 13.8556 11.7433 13.9068 11.7859C13.9578 11.8278 13.9967 11.8825 14.0196 11.9444C14.0425 12.0063 14.0486 12.0732 14.0371 12.1382Z" fill="#DBBE8F"/>
<path d="M13.0857 9.93719L12.7754 7.38478H12.8328C12.9469 7.38391 13.0574 7.42499 13.1432 7.50023C13.229 7.57546 13.2842 7.6796 13.2983 7.79285L13.4333 8.87899C13.4581 9.07014 13.4398 9.26442 13.3797 9.44755C13.3195 9.63069 13.2191 9.798 13.0857 9.93719Z" fill="#DBBE8F"/>
<path d="M12.9325 10.0963C12.4574 10.5031 11.9136 10.822 11.3266 11.0381C10.7059 11.2646 6.88428 11.6184 6.54758 11.7829L6.45138 11.0071C6.4377 10.8715 6.47735 10.7359 6.56192 10.629C6.64649 10.5221 6.76934 10.4524 6.90445 10.4345C8.89655 10.1123 10.9168 9.9989 12.9325 10.0963Z" fill="#DBBE8F"/>
<path d="M8.03362 27.67H1.3958L1.38804 27.6622C1.3901 26.5936 1.81604 25.5695 2.57237 24.8146C3.32871 24.0598 4.35365 23.6358 5.42225 23.6358H8.06776C13.4503 23.6358 17.9454 19.3611 18.0229 13.9801C18.0408 12.6813 17.8006 11.3919 17.3162 10.1867C16.8319 8.98144 16.113 7.8844 15.2014 6.95917C14.2897 6.03395 13.2034 5.29896 12.0055 4.79686C10.8075 4.29475 9.52182 4.03552 8.22292 4.03421H5.40828C4.34103 4.03216 3.31808 3.60728 2.56342 2.85262C1.80876 2.09796 1.38389 1.07501 1.38184 0.00775809L1.3958 0H8.22292C10.05 0.0021903 11.8587 0.365844 13.5446 1.07002C15.2306 1.77419 16.7606 2.80496 18.0465 4.10297C19.3324 5.40097 20.3487 6.94056 21.0371 8.63306C21.7254 10.3256 22.0721 12.1375 22.0571 13.9646C21.9827 21.5846 15.6552 27.67 8.03362 27.67Z" fill="#DBBE8F"/>
<path d="M7.24916 21.2831H2.22968C1.93694 21.2833 1.64704 21.2258 1.37653 21.1139C1.10603 21.002 0.860216 20.838 0.653151 20.631C0.446086 20.4241 0.281825 20.1784 0.169754 19.908C0.0576834 19.6376 -7.09792e-08 19.3477 0 19.055L0 18.9277H6.79454L7.21192 21.1419C7.21925 21.1902 7.23173 21.2375 7.24916 21.2831Z" fill="#DBBE8F"/>
<path d="M6.72006 18.5323H1.11406C0.81872 18.5319 0.535593 18.4144 0.326754 18.2056C0.117916 17.9967 0.000410482 17.7136 0 17.4183L0 17.2957C0.000410482 17.0004 0.117916 16.7172 0.326754 16.5084C0.535593 16.2996 0.81872 16.1821 1.11406 16.1816H6.27629L6.72006 18.5323Z" fill="#DBBE8F"/>
<path d="M6.20647 15.7804H0V15.6578C-7.09792e-08 15.3651 0.0576834 15.0752 0.169754 14.8048C0.281825 14.5344 0.446086 14.2887 0.653151 14.0817C0.860215 13.8748 1.10602 13.7107 1.37653 13.5988C1.64704 13.487 1.93694 13.4295 2.22967 13.4297H5.30188C5.36027 13.5207 5.43497 13.6001 5.52221 13.664C5.61127 13.7286 5.71108 13.7769 5.81702 13.8067V13.8347H5.83098L6.20647 15.7804Z" fill="#DBBE8F"/>
</g>
<defs>
<clipPath id="clip0_1094_1870">
<rect width="22.0531" height="27.67" fill="white"/>
</clipPath>
</defs>
</svg>

<svg width="23" height="28" fill="none" xmlns="http://www.w3.org/2000/svg"><g clip-path="url(#a)" fill="#DBBE8F"><path d="m13.302 13.343-.141.755a14.588 14.588 0 0 1-1.333 3.955c-1.963 3.833-3.887 3.203-3.975 3.175a.289.289 0 0 1-.104-.175L6.31 13.426c.802-.026 5.504-.172 6.992-.083zM14.037 12.138l-.129.795a.366.366 0 0 1-.155.242.393.393 0 0 1-.091.048c-.905-.155-6.564.023-7.388.05v-.008l-.066.012h-.024l-.062.01a.422.422 0 0 1-.063 0 .376.376 0 0 1-.32-.183.37.37 0 0 1-.048-.142l-.1-.802a.372.372 0 0 1 .311-.411l.32-.055c.73-.024 5.74-.155 7.115-.05.132.018.262.038.391.06a.379.379 0 0 1 .31.434zM13.086 9.937l-.31-2.552h.057a.465.465 0 0 1 .465.408l.135 1.086a1.29 1.29 0 0 1-.347 1.058z"/><path d="M12.932 10.096a5.267 5.267 0 0 1-1.605.942c-.621.227-4.443.58-4.78.745l-.096-.776a.525.525 0 0 1 .453-.572 28.99 28.99 0 0 1 6.028-.339z"/><path d="M8.034 27.67H1.396l-.008-.008a4.034 4.034 0 0 1 4.034-4.026h2.646c5.382 0 9.877-4.275 9.955-9.656a9.81 9.81 0 0 0-9.8-9.946H5.408A4.034 4.034 0 0 1 1.382.008L1.396 0h6.827a13.851 13.851 0 0 1 13.834 13.965c-.074 7.62-6.402 13.705-14.023 13.705z"/><path d="M7.25 21.283H2.23A2.228 2.228 0 0 1 0 19.055v-.127h6.795l.417 2.214c.007.048.02.096.037.141zM6.72 18.532H1.114A1.116 1.116 0 0 1 0 17.418v-.122a1.116 1.116 0 0 1 1.114-1.114h5.162l.444 2.35zM6.206 15.78H0v-.122a2.228 2.228 0 0 1 2.23-2.228h3.072a.879.879 0 0 0 .515.377v.028h.014l.375 1.945z"/></g><defs><clipPath id="a"><path fill="#fff" d="M0 0h22.053v27.67H0z"/></clipPath></defs></svg>
